X:1
T:Title
%%score { ( 1 3 ) | ( 2 4 ) }
L:1/8
M:6/8
K:Ab
V:1 treble nm="Grand Piano"
V:3 treble 
V:2 bass 
V:4 bass 
V:1
 z3 z2[Q:1/4=100] E | [CA]>[CA][CA] [CA][CB][CA] | [DA] [DG]2- [DG] z E | B>BB dcB | .[Ec]6 | %5
 [Ec]>[Ec][Ec] cde | [Fe] [Fd]2- [Fd] z [Fc] | [=Dc]>[DB][DB] [DB][DA][Dc] | [EB]6 | .c6 | .G6 | %11
 .d6 | .c6 | cBA [CAc][CGB][=DA] |[M:7/8] e-e-e- e2- e/ z/ z |[M:3/4] [Ec]>[Ec] [Ec]c de | %16
 [Fe] [Fd]3 z F | E>E EE EE |[M:5/8] [CE]-[CE]- [CE]3 |] %19
V:2
 z3 z2 E, | [A,,E,]>[A,,E,][A,,E,] [A,,E,][A,,E,][A,,E,] | [B,,E,] [B,,E,]2- [B,,E,] z E, | %3
 [E,G,E]>[E,G,E][E,G,E] [E,B,E][E,A,E][E,G,E] | [A,,A,]3- [A,,A,] z [E,E] | %5
 [A,,A,]>[A,,A,][A,,A,][K:treble] [A,E][A,B,E][A,C_G] | [D,D] [D,A,]2- [D,A,] z [D,A,] | %7
 [B,,A,]>[B,,A,][B,,A,] [B,,F,]2 [B,,A,] | [E,G,]6 | [A,,A,]>[A,,A,][A,,A,] .[A,,A,]3 | %10
 [B,,E,]>[B,,E,][B,,E,] .[B,,E,]3 | [E,G,E]>[E,G,][E,G,] .[E,G,]3 | %12
 [A,,A,]>[A,,A,][A,,A,] .[A,,A,]3 | CB,A, F,F,F, |[M:7/8] B,2 z z z z2 | %15
[M:3/4] [A,,A,]>[A,,A,] [A,,A,][A,E][K:treble] [A,B,E][A,CG] | [D,D] [D,A,]3 z [D,A,D] | %17
 [E,A,C]>[E,A,C] [E,A,C][E,G,B,] [E,A,C][E,B,D] |[M:5/8] [A,,A,]-[A,,A,]- [A,,A,]3 |] %19
V:3
 x6 | x6 | x6 | x6 | x6 | x6 | x6 | x6 | x6 | E>EE EEA | D>DD .D3 | z z/ E/E EEd | E>EE .E3 | x6 | %14
[M:7/8] G2 A B3 d |[M:3/4] x6 | x6 | x6 |[M:5/8] x5 |] %19
V:4
 x6 | x6 | x6 | x6 | x6 | x3[K:treble] x3 | x6 | x6 | x6 | x6 | x6 | x6 | x6 | x6 | %14
[M:7/8] E,2- [E,-C] [E,D]3 [E,G,E] |[M:3/4] x4[K:treble] x2 | x6 | x6 |[M:5/8] x5 |] %19

